build/img/logo.svg

<svg width="38" height="44" viewBox="0 0 38 44" fill="none" xmlns="http://www.w3.org/2000/svg">
<path d="M23.3418 5.53599L16.5973 0L9.85094 5.53599L0 0.783128L8.71665 15.6448H13.7298H16.5973H24.475L33.191 0.783128L23.3418 5.53599Z" fill="white"/>
<path d="M20.5991 22.2414H16.5973H15.1635H12.5925L8.72497 15.6431H0.623291L8.72497 29.462H15.1629H16.5967H24.4654L32.5695 15.6431H24.4654L20.5991 22.2414Z" fill="white"/>
<path d="M20.5991 36.0574H16.5973H15.1635H12.5925L8.72497 29.4614H0.623291L8.72497 43.2768H15.1629H16.5967H24.4654L32.5695 29.4614H24.4654L20.5991 36.0574Z" fill="white"/>
<path d="M29.481 13.8404L37.1382 0.783203H35.0484L27.3906 13.8404H29.481Z" fill="white"/>
<path d="M36.5172 15.6448H34.4269L27.3817 27.6574H29.4708L36.5172 15.6448Z" fill="white"/>
<path d="M34.4286 29.4619L26.3406 43.2772H28.4298L36.5184 29.4619H34.4286Z" fill="white"/>
</svg>

<svg width="38" height="44" fill="none" xmlns="http://www.w3.org/2000/svg"><path d="M23.342 5.536L16.597 0 9.851 5.536 0 .783l8.717 14.862h15.758L33.191.783l-9.85 4.753z" fill="#fff"/><path d="M20.6 22.241h-8.007l-3.868-6.598H.623l8.102 13.819h15.74l8.104-13.819h-8.104L20.6 22.241z" fill="#fff"/><path d="M20.6 36.057h-8.007l-3.868-6.596H.623l8.102 13.816h15.74L32.57 29.46h-8.104L20.6 36.057zm8.881-22.217L37.138.783h-2.09L27.391 13.84h2.09zm7.036 1.805h-2.09l-7.045 12.012h2.089l7.046-12.012zm-2.088 13.817L26.34 43.277h2.089l8.088-13.815h-2.09z" fill="#fff"/></svg>
